src/assets/images/eclipse.svg

<svg width="420" height="420" viewBox="0 0 420 420" fill="none" xmlns="http://www.w3.org/2000/svg">
<circle cx="210" cy="210" r="210" fill="black"/>
<path fill-rule="evenodd" clip-rule="evenodd" d="M210 149.073C176.351 149.073 149.073 176.351 149.073 210C149.073 243.649 176.351 270.927 210 270.927C243.649 270.927 270.927 243.649 270.927 210C270.927 176.351 243.649 149.073 210 149.073ZM151.722 210C151.722 177.814 177.814 151.722 210 151.722C242.186 151.722 268.278 177.814 268.278 210C268.278 242.186 242.186 268.278 210 268.278C177.814 268.278 151.722 242.186 151.722 210Z" fill="url(#paint0_radial_437_4908)" fill-opacity="0.08"/>
<path fill-rule="evenodd" clip-rule="evenodd" d="M210 139.139C170.865 139.139 139.139 170.865 139.139 210C139.139 249.135 170.865 280.861 210 280.861C249.135 280.861 280.861 249.135 280.861 210C280.861 170.865 249.135 139.139 210 139.139ZM141.788 210C141.788 172.328 172.328 141.788 210 141.788C247.672 141.788 278.212 172.328 278.212 210C278.212 247.672 247.672 278.212 210 278.212C172.328 278.212 141.788 247.672 141.788 210Z" fill="url(#paint1_radial_437_4908)" fill-opacity="0.08"/>
<path fill-rule="evenodd" clip-rule="evenodd" d="M129.205 210C129.205 165.378 165.378 129.205 210 129.205C254.622 129.205 290.795 165.378 290.795 210C290.795 254.622 254.622 290.795 210 290.795C165.378 290.795 129.205 254.622 129.205 210ZM210 131.854C166.841 131.854 131.854 166.841 131.854 210C131.854 253.159 166.841 288.146 210 288.146C253.159 288.146 288.146 253.159 288.146 210C288.146 166.841 253.159 131.854 210 131.854Z" fill="url(#paint2_radial_437_4908)" fill-opacity="0.08"/>
<path fill-rule="evenodd" clip-rule="evenodd" d="M119.272 210C119.272 159.892 159.892 119.272 210 119.272C260.108 119.272 300.728 159.892 300.728 210C300.728 260.108 260.108 300.728 210 300.728C159.892 300.728 119.272 260.108 119.272 210ZM210 121.921C161.355 121.921 121.921 161.355 121.921 210C121.921 258.645 161.355 298.079 210 298.079C258.645 298.079 298.079 258.645 298.079 210C298.079 161.355 258.645 121.921 210 121.921Z" fill="url(#paint3_radial_437_4908)" fill-opacity="0.08"/>
<path fill-rule="evenodd" clip-rule="evenodd" d="M109.338 210C109.338 154.406 154.406 109.338 210 109.338C265.594 109.338 310.662 154.406 310.662 210C310.662 265.594 265.594 310.662 210 310.662C154.406 310.662 109.338 265.594 109.338 210ZM210 111.987C155.869 111.987 111.987 155.869 111.987 210C111.987 264.131 155.869 308.013 210 308.013C264.131 308.013 308.013 264.131 308.013 210C308.013 155.869 264.131 111.987 210 111.987Z" fill="url(#paint4_radial_437_4908)" fill-opacity="0.08"/>
<path fill-rule="evenodd" clip-rule="evenodd" d="M210 99.404C148.92 99.404 99.404 148.92 99.404 210C99.404 271.081 148.92 320.596 210 320.596C271.081 320.596 320.596 271.081 320.596 210C320.596 148.92 271.081 99.404 210 99.404ZM102.053 210C102.053 150.383 150.383 102.053 210 102.053C269.617 102.053 317.947 150.383 317.947 210C317.947 269.617 269.617 317.947 210 317.947C150.383 317.947 102.053 269.617 102.053 210Z" fill="url(#paint5_radial_437_4908)" fill-opacity="0.08"/>
<path fill-rule="evenodd" clip-rule="evenodd" d="M89.4702 210C89.4702 143.433 143.433 89.4702 210 89.4702C276.567 89.4702 330.53 143.433 330.53 210C330.53 276.567 276.567 330.53 210 330.53C143.433 330.53 89.4702 276.567 89.4702 210ZM210 92.1192C144.896 92.1192 92.1192 144.896 92.1192 210C92.1192 275.104 144.896 327.881 210 327.881C275.104 327.881 327.881 275.104 327.881 210C327.881 144.896 275.104 92.1192 210 92.1192Z" fill="url(#paint6_radial_437_4908)" fill-opacity="0.08"/>
<path fill-rule="evenodd" clip-rule="evenodd" d="M210 79.5364C137.947 79.5364 79.5364 137.947 79.5364 210C79.5364 282.053 137.947 340.464 210 340.464C282.053 340.464 340.464 282.053 340.464 210C340.464 137.947 282.053 79.5364 210 79.5364ZM82.1854 210C82.1854 139.41 139.41 82.1854 210 82.1854C280.59 82.1854 337.815 139.41 337.815 210C337.815 280.59 280.59 337.815 210 337.815C139.41 337.815 82.1854 280.59 82.1854 210Z" fill="url(#paint7_radial_437_4908)" fill-opacity="0.08"/>
<path fill-rule="evenodd" clip-rule="evenodd" d="M69.6026 210C69.6026 132.461 132.461 69.6026 210 69.6026C287.539 69.6026 350.397 132.461 350.397 210C350.397 287.539 287.539 350.397 210 350.397C132.461 350.397 69.6026 287.539 69.6026 210ZM210 72.2517C133.924 72.2517 72.2517 133.924 72.2517 210C72.2517 286.076 133.924 347.748 210 347.748C286.076 347.748 347.748 286.076 347.748 210C347.748 133.924 286.076 72.2517 210 72.2517Z" fill="url(#paint8_radial_437_4908)" fill-opacity="0.08"/>
<path fill-rule="evenodd" clip-rule="evenodd" d="M210 59.6689C126.974 59.6689 59.6689 126.974 59.6689 210C59.6689 293.026 126.974 360.331 210 360.331C293.026 360.331 360.331 293.026 360.331 210C360.331 126.974 293.026 59.6689 210 59.6689ZM62.3179 210C62.3179 128.437 128.437 62.3179 210 62.3179C291.563 62.3179 357.682 128.437 357.682 210C357.682 291.563 291.563 357.682 210 357.682C128.437 357.682 62.3179 291.563 62.3179 210Z" fill="url(#paint9_radial_437_4908)" fill-opacity="0.08"/>
<path fill-rule="evenodd" clip-rule="evenodd" d="M49.7351 210C49.7351 121.488 121.488 49.7351 210 49.7351C298.512 49.7351 370.265 121.488 370.265 210C370.265 298.512 298.512 370.265 210 370.265C121.488 370.265 49.7351 298.512 49.7351 210ZM210 52.3841C122.951 52.3841 52.3841 122.951 52.3841 210C52.3841 297.049 122.951 367.616 210 367.616C297.049 367.616 367.616 297.049 367.616 210C367.616 122.951 297.049 52.3841 210 52.3841Z" fill="url(#paint10_radial_437_4908)" fill-opacity="0.08"/>
<path fill-rule="evenodd" clip-rule="evenodd" d="M210 39.8013C116.002 39.8013 39.8013 116.002 39.8013 210C39.8013 303.998 116.002 380.199 210 380.199C303.998 380.199 380.199 303.998 380.199 210C380.199 116.002 303.998 39.8013 210 39.8013ZM42.4503 210C42.4503 117.465 117.465 42.4503 210 42.4503C302.535 42.4503 377.55 117.465 377.55 210C377.55 302.535 302.535 377.55 210 377.55C117.465 377.55 42.4503 302.535 42.4503 210Z" fill="url(#paint11_radial_437_4908)" fill-opacity="0.08"/>
<path fill-rule="evenodd" clip-rule="evenodd" d="M29.8675 210C29.8675 110.516 110.516 29.8675 210 29.8675C309.484 29.8675 390.132 110.516 390.132 210C390.132 309.484 309.484 390.132 210 390.132C110.516 390.132 29.8675 309.484 29.8675 210ZM210 32.5166C111.979 32.5166 32.5166 111.979 32.5166 210C32.5166 308.021 111.979 387.483 210 387.483C308.021 387.483 387.483 308.021 387.483 210C387.483 111.979 308.021 32.5166 210 32.5166Z" fill="url(#paint12_radial_437_4908)" fill-opacity="0.08"/>
<path fill-rule="evenodd" clip-rule="evenodd" d="M210 19.9338C105.029 19.9338 19.9338 105.029 19.9338 210C19.9338 314.971 105.029 400.066 210 400.066C314.971 400.066 400.066 314.971 400.066 210C400.066 105.029 314.971 19.9338 210 19.9338ZM22.5828 210C22.5828 106.492 106.492 22.5828 210 22.5828C313.508 22.5828 397.417 106.492 397.417 210C397.417 313.508 313.508 397.417 210 397.417C106.492 397.417 22.5828 313.508 22.5828 210Z" fill="url(#paint13_radial_437_4908)" fill-opacity="0.08"/>
<path fill-rule="evenodd" clip-rule="evenodd" d="M10 210C10 99.5431 99.5431 10 210 10C320.457 10 410 99.5431 410 210C410 320.457 320.457 410 210 410C99.5431 410 10 320.457 10 210ZM210 12.649C101.006 12.649 12.649 101.006 12.649 210C12.649 318.994 101.006 407.351 210 407.351C318.994 407.351 407.351 318.994 407.351 210C407.351 101.006 318.994 12.649 210 12.649Z" fill="url(#paint14_radial_437_4908)" fill-opacity="0.08"/>
<defs>
<radialGradient id="paint0_radial_437_4908" cx="0" cy="0" r="1" gradientUnits="userSpaceOnUse" gradientTransform="translate(210 210) rotate(90) scale(200)">
<stop stop-color="white"/>
<stop offset="1" stop-color="#999999"/>
</radialGradient>
<radialGradient id="paint1_radial_437_4908" cx="0" cy="0" r="1" gradientUnits="userSpaceOnUse" gradientTransform="translate(210 210) rotate(90) scale(200)">
<stop stop-color="white"/>
<stop offset="1" stop-color="#999999"/>
</radialGradient>
<radialGradient id="paint2_radial_437_4908" cx="0" cy="0" r="1" gradientUnits="userSpaceOnUse" gradientTransform="translate(210 210) rotate(90) scale(200)">
<stop stop-color="white"/>
<stop offset="1" stop-color="#999999"/>
</radialGradient>
<radialGradient id="paint3_radial_437_4908" cx="0" cy="0" r="1" gradientUnits="userSpaceOnUse" gradientTransform="translate(210 210) rotate(90) scale(200)">
<stop stop-color="white"/>
<stop offset="1" stop-color="#999999"/>
</radialGradient>
<radialGradient id="paint4_radial_437_4908" cx="0" cy="0" r="1" gradientUnits="userSpaceOnUse" gradientTransform="translate(210 210) rotate(90) scale(200)">
<stop stop-color="white"/>
<stop offset="1" stop-color="#999999"/>
</radialGradient>
<radialGradient id="paint5_radial_437_4908" cx="0" cy="0" r="1" gradientUnits="userSpaceOnUse" gradientTransform="translate(210 210) rotate(90) scale(200)">
<stop stop-color="white"/>
<stop offset="1" stop-color="#999999"/>
</radialGradient>
<radialGradient id="paint6_radial_437_4908" cx="0" cy="0" r="1" gradientUnits="userSpaceOnUse" gradientTransform="translate(210 210) rotate(90) scale(200)">
<stop stop-color="white"/>
<stop offset="1" stop-color="#999999"/>
</radialGradient>
<radialGradient id="paint7_radial_437_4908" cx="0" cy="0" r="1" gradientUnits="userSpaceOnUse" gradientTransform="translate(210 210) rotate(90) scale(200)">
<stop stop-color="white"/>
<stop offset="1" stop-color="#999999"/>
</radialGradient>
<radialGradient id="paint8_radial_437_4908" cx="0" cy="0" r="1" gradientUnits="userSpaceOnUse" gradientTransform="translate(210 210) rotate(90) scale(200)">
<stop stop-color="white"/>
<stop offset="1" stop-color="#999999"/>
</radialGradient>
<radialGradient id="paint9_radial_437_4908" cx="0" cy="0" r="1" gradientUnits="userSpaceOnUse" gradientTransform="translate(210 210) rotate(90) scale(200)">
<stop stop-color="white"/>
<stop offset="1" stop-color="#999999"/>
</radialGradient>
<radialGradient id="paint10_radial_437_4908" cx="0" cy="0" r="1" gradientUnits="userSpaceOnUse" gradientTransform="translate(210 210) rotate(90) scale(200)">
<stop stop-color="white"/>
<stop offset="1" stop-color="#999999"/>
</radialGradient>
<radialGradient id="paint11_radial_437_4908" cx="0" cy="0" r="1" gradientUnits="userSpaceOnUse" gradientTransform="translate(210 210) rotate(90) scale(200)">
<stop stop-color="white"/>
<stop offset="1" stop-color="#999999"/>
</radialGradient>
<radialGradient id="paint12_radial_437_4908" cx="0" cy="0" r="1" gradientUnits="userSpaceOnUse" gradientTransform="translate(210 210) rotate(90) scale(200)">
<stop stop-color="white"/>
<stop offset="1" stop-color="#999999"/>
</radialGradient>
<radialGradient id="paint13_radial_437_4908" cx="0" cy="0" r="1" gradientUnits="userSpaceOnUse" gradientTransform="translate(210 210) rotate(90) scale(200)">
<stop stop-color="white"/>
<stop offset="1" stop-color="#999999"/>
</radialGradient>
<radialGradient id="paint14_radial_437_4908" cx="0" cy="0" r="1" gradientUnits="userSpaceOnUse" gradientTransform="translate(210 210) rotate(90) scale(200)">
<stop stop-color="white"/>
<stop offset="1" stop-color="#999999"/>
</radialGradient>
</defs>
</svg>

<svg xmlns="http://www.w3.org/2000/svg" width="420" height="420" fill="none"><circle cx="210" cy="210" r="210" fill="#000"/><path fill="url(#a)" fill-opacity=".08" fill-rule="evenodd" d="M210 149.073c-33.649 0-60.927 27.278-60.927 60.927s27.278 60.927 60.927 60.927 60.927-27.278 60.927-60.927-27.278-60.927-60.927-60.927M151.722 210c0-32.186 26.092-58.278 58.278-58.278s58.278 26.092 58.278 58.278-26.092 58.278-58.278 58.278-58.278-26.092-58.278-58.278" clip-rule="evenodd"/><path fill="url(#b)" fill-opacity=".08" fill-rule="evenodd" d="M210 139.139c-39.135 0-70.861 31.726-70.861 70.861s31.726 70.861 70.861 70.861 70.861-31.726 70.861-70.861-31.726-70.861-70.861-70.861M141.788 210c0-37.672 30.54-68.212 68.212-68.212s68.212 30.54 68.212 68.212-30.54 68.212-68.212 68.212-68.212-30.54-68.212-68.212" clip-rule="evenodd"/><path fill="url(#c)" fill-opacity=".08" fill-rule="evenodd" d="M129.205 210c0-44.622 36.173-80.795 80.795-80.795s80.795 36.173 80.795 80.795-36.173 80.795-80.795 80.795-80.795-36.173-80.795-80.795M210 131.854c-43.159 0-78.146 34.987-78.146 78.146s34.987 78.146 78.146 78.146 78.146-34.987 78.146-78.146-34.987-78.146-78.146-78.146" clip-rule="evenodd"/><path fill="url(#d)" fill-opacity=".08" fill-rule="evenodd" d="M119.272 210c0-50.108 40.62-90.728 90.728-90.728s90.728 40.62 90.728 90.728-40.62 90.728-90.728 90.728-90.728-40.62-90.728-90.728M210 121.921c-48.645 0-88.079 39.434-88.079 88.079s39.434 88.079 88.079 88.079 88.079-39.434 88.079-88.079-39.434-88.079-88.079-88.079" clip-rule="evenodd"/><path fill="url(#e)" fill-opacity=".08" fill-rule="evenodd" d="M109.338 210c0-55.594 45.068-100.662 100.662-100.662S310.662 154.406 310.662 210 265.594 310.662 210 310.662 109.338 265.594 109.338 210M210 111.987c-54.131 0-98.013 43.882-98.013 98.013s43.882 98.013 98.013 98.013 98.013-43.882 98.013-98.013-43.882-98.013-98.013-98.013" clip-rule="evenodd"/><path fill="url(#f)" fill-opacity=".08" fill-rule="evenodd" d="M210 99.404C148.92 99.404 99.404 148.92 99.404 210S148.92 320.596 210 320.596 320.596 271.081 320.596 210c0-61.08-49.515-110.596-110.596-110.596M102.053 210c0-59.617 48.33-107.947 107.947-107.947S317.947 150.383 317.947 210 269.617 317.947 210 317.947 102.053 269.617 102.053 210" clip-rule="evenodd"/><path fill="url(#g)" fill-opacity=".08" fill-rule="evenodd" d="M89.47 210c0-66.567 53.963-120.53 120.53-120.53S330.53 143.433 330.53 210 276.567 330.53 210 330.53 89.47 276.567 89.47 210M210 92.12c-65.104 0-117.88 52.776-117.88 117.88S144.895 327.881 210 327.881 327.881 275.104 327.881 210 275.104 92.12 210 92.12" clip-rule="evenodd"/><path fill="url(#h)" fill-opacity=".08" fill-rule="evenodd" d="M210 79.536c-72.053 0-130.464 58.411-130.464 130.464S137.947 340.464 210 340.464 340.464 282.053 340.464 210 282.053 79.536 210 79.536M82.185 210c0-70.59 57.225-127.815 127.815-127.815S337.815 139.41 337.815 210 280.59 337.815 210 337.815 82.185 280.59 82.185 210" clip-rule="evenodd"/><path fill="url(#i)" fill-opacity=".08" fill-rule="evenodd" d="M69.603 210c0-77.539 62.858-140.397 140.397-140.397S350.397 132.46 350.397 210 287.539 350.397 210 350.397 69.603 287.539 69.603 210M210 72.252c-76.076 0-137.748 61.672-137.748 137.748S133.924 347.748 210 347.748 347.748 286.076 347.748 210 286.076 72.252 210 72.252" clip-rule="evenodd"/><path fill="url(#j)" fill-opacity=".08" fill-rule="evenodd" d="M210 59.669c-83.026 0-150.331 67.305-150.331 150.331S126.974 360.331 210 360.331 360.331 293.026 360.331 210 293.026 59.669 210 59.669M62.318 210c0-81.563 66.119-147.682 147.682-147.682S357.682 128.437 357.682 210 291.563 357.682 210 357.682 62.318 291.563 62.318 210" clip-rule="evenodd"/><path fill="url(#k)" fill-opacity=".08" fill-rule="evenodd" d="M49.735 210c0-88.512 71.753-160.265 160.265-160.265S370.265 121.488 370.265 210 298.512 370.265 210 370.265 49.735 298.512 49.735 210M210 52.384c-87.049 0-157.616 70.567-157.616 157.616S122.951 367.616 210 367.616 367.616 297.049 367.616 210 297.049 52.384 210 52.384" clip-rule="evenodd"/><path fill="url(#l)" fill-opacity=".08" fill-rule="evenodd" d="M210 39.801c-93.998 0-170.199 76.201-170.199 170.199S116.002 380.199 210 380.199 380.199 303.998 380.199 210 303.998 39.801 210 39.801M42.45 210c0-92.535 75.015-167.55 167.55-167.55S377.55 117.465 377.55 210 302.535 377.55 210 377.55 42.45 302.535 42.45 210" clip-rule="evenodd"/><path fill="url(#m)" fill-opacity=".08" fill-rule="evenodd" d="M29.868 210c0-99.484 80.648-180.132 180.132-180.132S390.132 110.516 390.132 210 309.484 390.132 210 390.132 29.868 309.484 29.868 210M210 32.517c-98.021 0-177.483 79.462-177.483 177.483S111.979 387.483 210 387.483 387.483 308.021 387.483 210 308.021 32.517 210 32.517" clip-rule="evenodd"/><path fill="url(#n)" fill-opacity=".08" fill-rule="evenodd" d="M210 19.934C105.029 19.934 19.934 105.029 19.934 210S105.029 400.066 210 400.066 400.066 314.971 400.066 210 314.971 19.934 210 19.934M22.583 210c0-103.508 83.909-187.417 187.417-187.417S397.417 106.492 397.417 210 313.508 397.417 210 397.417 22.583 313.508 22.583 210" clip-rule="evenodd"/><path fill="url(#o)" fill-opacity=".08" fill-rule="evenodd" d="M10 210C10 99.543 99.543 10 210 10s200 89.543 200 200-89.543 200-200 200S10 320.457 10 210M210 12.649C101.006 12.649 12.649 101.006 12.649 210S101.006 407.351 210 407.351 407.351 318.994 407.351 210 318.994 12.649 210 12.649" clip-rule="evenodd"/><defs><radialGradient id="a" cx="0" cy="0" r="1" gradientTransform="rotate(90 0 210)scale(200)" gradientUnits="userSpaceOnUse"><stop stop-color="#fff"/><stop offset="1" stop-color="#999"/></radialGradient><radialGradient id="b" cx="0" cy="0" r="1" gradientTransform="rotate(90 0 210)scale(200)" gradientUnits="userSpaceOnUse"><stop stop-color="#fff"/><stop offset="1" stop-color="#999"/></radialGradient><radialGradient id="c" cx="0" cy="0" r="1" gradientTransform="rotate(90 0 210)scale(200)" gradientUnits="userSpaceOnUse"><stop stop-color="#fff"/><stop offset="1" stop-color="#999"/></radialGradient><radialGradient id="d" cx="0" cy="0" r="1" gradientTransform="rotate(90 0 210)scale(200)" gradientUnits="userSpaceOnUse"><stop stop-color="#fff"/><stop offset="1" stop-color="#999"/></radialGradient><radialGradient id="e" cx="0" cy="0" r="1" gradientTransform="rotate(90 0 210)scale(200)" gradientUnits="userSpaceOnUse"><stop stop-color="#fff"/><stop offset="1" stop-color="#999"/></radialGradient><radialGradient id="f" cx="0" cy="0" r="1" gradientTransform="rotate(90 0 210)scale(200)" gradientUnits="userSpaceOnUse"><stop stop-color="#fff"/><stop offset="1" stop-color="#999"/></radialGradient><radialGradient id="g" cx="0" cy="0" r="1" gradientTransform="rotate(90 0 210)scale(200)" gradientUnits="userSpaceOnUse"><stop stop-color="#fff"/><stop offset="1" stop-color="#999"/></radialGradient><radialGradient id="h" cx="0" cy="0" r="1" gradientTransform="rotate(90 0 210)scale(200)" gradientUnits="userSpaceOnUse"><stop stop-color="#fff"/><stop offset="1" stop-color="#999"/></radialGradient><radialGradient id="i" cx="0" cy="0" r="1" gradientTransform="rotate(90 0 210)scale(200)" gradientUnits="userSpaceOnUse"><stop stop-color="#fff"/><stop offset="1" stop-color="#999"/></radialGradient><radialGradient id="j" cx="0" cy="0" r="1" gradientTransform="rotate(90 0 210)scale(200)" gradientUnits="userSpaceOnUse"><stop stop-color="#fff"/><stop offset="1" stop-color="#999"/></radialGradient><radialGradient id="k" cx="0" cy="0" r="1" gradientTransform="rotate(90 0 210)scale(200)" gradientUnits="userSpaceOnUse"><stop stop-color="#fff"/><stop offset="1" stop-color="#999"/></radialGradient><radialGradient id="l" cx="0" cy="0" r="1" gradientTransform="rotate(90 0 210)scale(200)" gradientUnits="userSpaceOnUse"><stop stop-color="#fff"/><stop offset="1" stop-color="#999"/></radialGradient><radialGradient id="m" cx="0" cy="0" r="1" gradientTransform="rotate(90 0 210)scale(200)" gradientUnits="userSpaceOnUse"><stop stop-color="#fff"/><stop offset="1" stop-color="#999"/></radialGradient><radialGradient id="n" cx="0" cy="0" r="1" gradientTransform="rotate(90 0 210)scale(200)" gradientUnits="userSpaceOnUse"><stop stop-color="#fff"/><stop offset="1" stop-color="#999"/></radialGradient><radialGradient id="o" cx="0" cy="0" r="1" gradientTransform="rotate(90 0 210)scale(200)" gradientUnits="userSpaceOnUse"><stop stop-color="#fff"/><stop offset="1" stop-color="#999"/></radialGradient></defs></svg>
